src/components/ProtocolIcon/optimism.svg

<svg width="16" height="16" viewBox="0 0 16 16" fill="none" xmlns="http://www.w3.org/2000/svg">
<path d="M8 16C12.4183 16 16 12.4183 16 8C16 3.58172 12.4183 0 8 0C3.58172 0 0 3.58172 0 8C0 12.4183 3.58172 16 8 16Z" fill="#FF0420"/>
<path d="M5.6683 10.1263C5.19195 10.1263 4.80168 10.0142 4.49746 9.79001C4.19723 9.56185 4.04712 9.23763 4.04712 8.81731C4.04712 8.72924 4.05714 8.62115 4.07714 8.49305C4.1292 8.20486 4.20325 7.85859 4.29931 7.4543C4.5715 6.3535 5.27403 5.8031 6.40686 5.8031C6.71509 5.8031 6.99128 5.85513 7.23547 5.9592C7.47966 6.05926 7.67179 6.21139 7.81189 6.41555C7.95198 6.61568 8.02206 6.85587 8.02206 7.13606C8.02206 7.22012 8.01205 7.3262 7.99202 7.4543C7.93198 7.81056 7.85992 8.15683 7.77586 8.49305C7.63576 9.04147 7.39358 9.45177 7.04933 9.72396C6.70507 9.99216 6.24475 10.1263 5.6683 10.1263ZM5.75237 9.26163C5.97656 9.26163 6.16667 9.19558 6.3228 9.06348C6.48293 8.93139 6.59701 8.72924 6.66504 8.45705C6.7571 8.08076 6.82718 7.75251 6.87522 7.47232C6.89122 7.38825 6.89922 7.3022 6.89922 7.21411C6.89922 6.84985 6.70907 6.66771 6.32882 6.66771C6.10462 6.66771 5.9125 6.73376 5.75237 6.86585C5.59627 6.99798 5.48418 7.20012 5.41614 7.47232C5.34408 7.74051 5.27202 8.06876 5.19998 8.45705C5.18395 8.53708 5.17595 8.62115 5.17595 8.70921C5.17595 9.0775 5.36811 9.26163 5.75237 9.26163Z" fill="white"/>
<path d="M8.2976 10.0663C8.25357 10.0663 8.21952 10.0522 8.19552 10.0242C8.17549 9.99218 8.1695 9.95618 8.1775 9.91615L9.00611 6.01327C9.01411 5.96924 9.03613 5.93321 9.07216 5.90517C9.10819 5.87717 9.14621 5.86316 9.18624 5.86316H10.7834C11.2277 5.86316 11.584 5.95522 11.8522 6.13935C12.1244 6.32351 12.2605 6.58969 12.2605 6.93794C12.2605 7.03801 12.2485 7.1421 12.2245 7.25017C12.1244 7.71052 11.9223 8.05078 11.618 8.27094C11.3178 8.4911 10.9055 8.60118 10.3811 8.60118H9.57053L9.29434 9.91615C9.2863 9.96018 9.26429 9.99618 9.22829 10.0242C9.19226 10.0522 9.15421 10.0663 9.11421 10.0663H8.2976ZM10.4232 7.77257C10.5913 7.77257 10.7374 7.72652 10.8615 7.63446C10.9896 7.54239 11.0736 7.4103 11.1137 7.23817C11.1257 7.1701 11.1317 7.11007 11.1317 7.05804C11.1317 6.94194 11.0977 6.85388 11.0296 6.79385C10.9615 6.72978 10.8455 6.69778 10.6813 6.69778H9.9608L9.73264 7.77257H10.4232Z" fill="white"/>
</svg>

<svg xmlns="http://www.w3.org/2000/svg" width="16" height="16" fill="none"><path fill="#FF0420" d="M8 16A8 8 0 1 0 8 0a8 8 0 0 0 0 16"/><path fill="#fff" d="M5.668 10.126q-.714 0-1.17-.336-.45-.342-.45-.973 0-.132.03-.324.077-.432.221-1.039.408-1.65 2.108-1.65.462 0 .828.155.367.15.577.457.21.3.21.72 0 .126-.03.318a14 14 0 0 1-.216 1.04q-.21.821-.727 1.23-.516.402-1.38.402m.084-.864a.85.85 0 0 0 .57-.199q.24-.198.343-.606.138-.564.21-.985.024-.126.024-.258 0-.546-.57-.546a.88.88 0 0 0-.577.198q-.234.198-.336.606-.108.403-.216.985-.024.12-.024.252 0 .553.576.553M8.298 10.066a.13.13 0 0 1-.102-.042.14.14 0 0 1-.018-.108l.828-3.903a.17.17 0 0 1 .066-.108.2.2 0 0 1 .114-.042h1.597q.667 0 1.07.276.407.277.408.799 0 .15-.036.312-.15.69-.607 1.02-.45.331-1.237.331h-.81l-.277 1.315a.17.17 0 0 1-.066.108.2.2 0 0 1-.114.042zm2.125-2.293a.7.7 0 0 0 .438-.139.65.65 0 0 0 .253-.396q.018-.102.018-.18 0-.174-.102-.264-.103-.096-.349-.096h-.72l-.228 1.075z"/></svg>
